!!!COM: Fanny Hensel-Mendelssohn
!!!OTL: O Herbst
**kern	**text	**text	**dynam	**kern	**text	**text	**dynam	**kern	**text	**text	**dynam	**kern	**text	**text	**dynam
*part4	*part4	*part4	*part4	*part3	*part3	*part3	*part3	*part2	*part2	*part2	*part2	*part1	*part1	*part1	*part1
*staff4	*staff4	*staff4	*	*staff3	*staff3	*staff3	*	*staff2	*staff2	*staff2	*	*staff1	*staff1	*staff1	*
*I"Baß	*	*	*	*I"Tenor	*	*	*	*I"Alt	*	*	*	*I"Sopran	*	*	*
*clefF4	*	*	*	*clefGv2	*	*	*	*clefG2	*	*	*	*clefG2	*	*	*
*k[b-]	*	*	*	*k[b-]	*	*	*	*k[b-]	*	*	*	*k[b-]	*	*	*
*F:	*	*	*	*F:	*	*	*	*F:	*	*	*	*F:	*	*	*
*M3/4	*	*	*	*M3/4	*	*	*	*M3/4	*	*	*	*M3/4	*	*	*
=	=	=	=	=	=	=	=	=	=	=	=	=	=	=	=
!	!	!	!LO:DY:a	!	!	!	!LO:DY:a	!	!	!	!LO:DY:a	!LO:TX:a:B:t=Ruhig, wehmütig	!	!	!LO:DY:a
4F	O	So	mf	4c	O	So	mf	4f	O	So	mf	4a	O	So	mf
=1	=1	=1	=1	=1	=1	=1	=1	=1	=1	=1	=1	=1	=1	=1	=1
4.F	Herbst,	wun-	.	4.A	Herbst,	wun-	.	4.e-X	Herbst,	wun-	.	4.cc	Herbst,	wun-	.
8F	in	-der-	.	8A	in	-der-	.	8e-	in	-der-	.	8f	in	-der-	.
8F	lin-	-ba-	.	8B-	lin-	-ba-	.	8d-X	lin-	-ba-	.	8dd-X	lin-	-ba-	.
8F	-den	-re	.	8d-X	-den	-re	.	8en	-den	-re	.	8b-	-den	-re	.
=2	=2	=2	=2	=2	=2	=2	=2	=2	=2	=2	=2	=2	=2	=2	=2
4F	Ta-	Wei-	.	4d-X	Ta-	Wei-	.	4e	Ta-	Wei-	.	4b-	Ta-	Wei-	.
4F	-gen,	-se	.	4c	-gen,	-se	.	4f	-gen,	-se	.	4a	-gen,	-se	.
4E	wie	singt	.	4c#X	wie	singt	.	4g	wie	singt	.	4a	wie	singt	.
=3	=3	=3	=3	=3	=3	=3	=3	=3	=3	=3	=3	=3	=3	=3	=3
4.D	hast	mir	.	4.d	hast	mir	.	4.f	hast	mir	.	4.b-	hast	mir	.
8C	du	dein	.	8e-X	du	dein	.	8f#X	du	dein	.	8a	du	dein	.
8BB-	rings	blei-	.	8d	rings	blei-	.	8f#	rings	blei-	.	8dd	rings	blei-	.
8GG	dein	-cher	.	8d	dein	-cher	.	8g	dein	-cher	.	8b-	dein	-cher	.
=4	=4	=4	=4	=4	=4	=4	=4	=4	=4	=4	=4	=4	=4	=4	=4
2C	Reich,	Mund,	.	4.c	Reich,	Mund,	.	2e	Reich	Mund,	.	2g	Reich	Mund,	.
.	.	.	.	8G	dein	dein	.	.	.	.	.	.	.	.	.
4C	dein	dein	.	8c	Reich	blei-	.	4e	fan-	es	.	4cc	fan-	es	.
.	.	.	.	8B-	fan-	-cher	.	.	.	.	.	.	.	.	.
=5	=5	=5	=5	=5	=5	=5	=5	=5	=5	=5	=5	=5	=5	=5	=5
2C	Reich	blei-	.	4.A	-ta-	Mund,	.	4f	-ta-	ist	.	(8cc	-ta-	ist	.
.	.	.	.	.	.	.	.	.	.	.	.	4ee-X)	.	.	.
.	.	.	.	.	.	.	.	4f#X	-stisch	als	.	.	.	.	.
.	.	.	.	8A	-stisch	als	.	.	.	.	.	8cc	-stisch	als	.
4C	fan-	-cher	.	8d	auf-	öff-	.	8d	auf-	öff-	.	8b-	auf-	öff-	.
.	.	.	.	8f#X	-ge-	-net	.	8e-X	-ge-	-net	.	8a	-ge-	-net	.
=6	=6	=6	=6	=6	=6	=6	=6	=6	=6	=6	=6	=6	=6	=6	=6
4BB-	-ta-	Mund,	.	4f#X	-schla-	lei-	.	4d	-schla-	lei-	.	4dd	-schla-	lei-	.
4B-	-stisch	.	.	4g	-gen,	-se,	.	4d	-gen,	-se,	.	4g	-gen,	-se,	.
!LO:TX:a:i:t=cresc.	!	!	!	!LO:TX:a:i:t=cresc.	!	!	!	!LO:TX:a:i:t=cresc.	!	!	!	!LO:TX:a:i:t=cresc.	!	!	!
4A	fan-	es	.	4c	fan-	es	.	4f#X	fan-	es	.	4dd	fan-	es	.
=7	=7	=7	=7	=7	=7	=7	=7	=7	=7	=7	=7	=7	=7	=7	=7
8GL	-ta-	ist,	.	8B-L	-ta-	ist,	.	4.g	-ta-	ist,	.	4.gg	-ta-	ist,	.
8c	.	.	.	8e-X	.	.	.	.	.	.	.	.	.	.	.
8B-	.	.	.	8d	.	.	.	.	.	.	.	.	.	.	.
8AJ	-stisch	als	.	8cJ	-stisch	als	.	8a	-stisch	als	.	8ff	-stisch	als	.
8G	auf-	öff-	.	8B-	auf-	öff-	.	8b-	auf-	öff-	.	8ee	auf-	öff-	.
8G#X	-ge-	-net	.	8f	-ge-	-net	.	8bn	-ge-	-net	.	8dd	-ge-	-net	.
=8	=8	=8	=8	=8	=8	=8	=8	=8	=8	=8	=8	=8	=8	=8	=8
4A	-schla-	lei-	.	4d	-schla-	lei-	.	4a	-schla-	lei-	.	4ff	-schla-	lei-	.
4AA	-gen,	-se	.	4c#X	-gen,	-se	.	4a	-gen,	-se	.	4ee	-gen,	-se	.
!	!	!	!LO:DY:a	!	!	!	!LO:DY:a	!	!	!	!LO:DY:a	!	!	!	!LO:DY:a
4C#X	so	sich	p	4e	so	sich	p	4g	so	sich	p	4a	so	sich	p
=9	=9	=9	=9	=9	=9	=9	=9	=9	=9	=9	=9	=9	=9	=9	=9
2D	bunt,	un-	.	(4e	bunt,	un-	.	(4g	bunt,	un-	.	2a	bunt,	un-	.
.	.	.	.	4d)	.	.	.	4f#X)	.	.	.	.	.	.	.
4F	so	-ter	.	4d	so	-ter	.	4fn	so	-ter	.	4a	so	-ter	.
!!pagebreak:original
=10	=10	=10	=10	=10	=10	=10	=10	=10	=10	=10	=10	=10	=10	=10	=10
!	!	!	!LO:DY:a	!	!	!	!LO:DY:a	!	!	!	!LO:DY:a	!	!	!	!LO:DY:a
2A	bleich,	mir,	<	4d	bleich,	mir,	<	4f	bleich,	mir,	<	2a	bleich,	mir,	<
.	.	.	.	4c#X	.	.	.	4e	.	.	.	.	.	.	.
4F	so	sich	[[	4cn	so	sich	[[	4e-X	so	sich	[[	4a	so	sich	[[
=11	=11	=11	=11	=11	=11	=11	=11	=11	=11	=11	=11	=11	=11	=11	=11
*	*	*	*	*	*	*	*	*^	*	*	*	*	*	*	*
2BB-	bunt	un-	.	4.B-	bunt	un-	.	2d	4d	bunt	un-	.	4.a	bunt	un-	.
.	.	.	.	.	.	.	.	.	4d	.	.	.	.	.	.	.
.	.	.	.	8d	und	-ter	.	.	.	.	.	.	8g	und	-ter	.
4AA	doch	-mir	.	8c#X	doch	mir	.	4g	8g	doch	-mir	.	8ee	doch	mir	.
.	.	.	.	8e	so	der	.	.	8g	.	.	.	8cc#X	so	der	.
*	*	*	*	*	*	*	*	*v	*v	*	*	*	*	*	*	*
=12	=12	=12	=12	=12	=12	=12	=12	=12	=12	=12	=12	=12	=12	=12	=12
!	!	!	!LO:DY:a	!	!	!	!LO:DY:a	!	!	!	!LO:DY:a	!	!	!	!LO:DY:a
2D	bleich.	Grund.	>	(4e	bleich.	Grund.	>	(4g	bleich.	Grund.	>	(4cc#X	bleich.	Grund.	>
.	.	.	.	4d)	.	.	]	4f)	.	.	]	4dd)	.	.	]
4r	.	.	]	8r	.	.	.	4r	.	.	.	8r	.	.	.
!	!	!	!	!	!	!	!LO:DY:a	!	!	!	!	!	!	!	!LO:DY:a
.	.	.	.	8A	Wie	Und	p	.	.	.	.	8a	Wie	Und	p
=13	=13	=13	=13	=13	=13	=13	=13	=13	=13	=13	=13	=13	=13	=13	=13
8.r	.	.	.	4.B-	ö-	ich	.	8.r	.	.	.	4.b-	ö-	ich	.
!	!	!	!LO:DY:a	!	!	!	!	!	!	!	!LO:DY:a	!	!	!	!
16D	Wie	Und	p	.	.	.	.	16f	Wie	Und	p	.	.	.	.
4D	ö-	ich	.	.	.	.	.	4f	ö-	ich	.	.	.	.	.
.	.	.	.	8B-	-de	ruht’	.	.	.	.	.	8b-	-de	ruht’	.
4D	-de	ruht’	.	8A	oh-	ü-	.	4f	-de	ruht’	.	8a	oh-	ü-	.
.	.	.	.	8G#X	-ne	-ber-	.	.	.	.	.	8g#X	-ne	-ber-	.
=14	=14	=14	=14	=14	=14	=14	=14	=14	=14	=14	=14	=14	=14	=14	=14
4r	.	.	.	4G#X	Brü-	-wo-	.	4r	.	.	.	4g#X	Brü-	-wo-	.
8.C#X	oh-	ü-	.	4A	-der,	-ben,	.	8.e	oh-	ü-	.	4a	-der,	-ben,	.
16C#	-ne	-ber-	.	.	.	.	.	16e	-ne	-ber-	.	.	.	.	.
8C#	Brü-	-wo-	.	8r	.	.	.	8e	Brü-	-wo-	.	8r	.	.	.
8C#	-der,	-ben,	.	8A	mein	du	.	8e	-der,	-ben,	.	8a	mein	du	.
=15	=15	=15	=15	=15	=15	=15	=15	=15	=15	=15	=15	=15	=15	=15	=15
8r	.	.	.	4.d	Tal	sän-	.	8r	.	.	.	4.dd	Tal	sän-	.
8F	mein	du	.	.	.	.	.	8a	mein	du	.	.	.	.	.
2F	Tal	sängst	.	.	.	.	.	(4a	Tal	sängst	.	.	.	.	.
.	.	.	.	8d	so	-ges	.	.	.	.	.	8dd	so	-ges	.
.	.	.	.	8c	weit	im-	.	4a-X)	.	.	.	8cc	weit	im-	.
.	.	.	.	8Bn	und	-mer-	.	.	.	.	.	8bn	und	-mer-	.
=16	=16	=16	=16	=16	=16	=16	=16	=16	=16	=16	=16	=16	=16	=16	=16
8r	.	.	.	(4Bn	breit,	-zu,	.	8r	.	.	.	(4bn	breit,	-zu,	.
(8F	so	im-	.	.	.	.	.	(8a-X	so	im-	.	.	.	.	.
8E)	weit	.	.	4c)	.	.	.	8g)	weit	.	.	4cc)	.	.	.
8B-	und	-mer-	.	.	.	.	.	8e	und	-mer-	.	.	.	.	.
8A	breit,	-zu,	.	8r	.	.	.	8f	breit,	-zu,	.	8r	.	.	.
8G	ich	die	.	8e	ich	die	.	8b-	ich	die	.	8cc	ich	die	.
=17	=17	=17	=17	=17	=17	=17	=17	=17	=17	=17	=17	=17	=17	=17	=17
!	!	!	!LO:DY:a	!	!	!	!LO:DY:a	!	!	!	!LO:DY:a	!	!	!	!LO:DY:a
2F	ken-	Lin-	f	8fL	ken-	Lin-	f	8a	ken-	Lin-	f	8ccL	ken-	Lin-	f
.	.	.	.	8A	.	.	.	4f	.	.	.	8cc#X	.	.	.
.	.	.	.	8B-J	.	.	.	.	.	.	.	8ddJ	.	.	.
.	.	.	.	8c#X	-ne	-de	.	8f	-ne	-de	.	8ee	-ne	-de	.
4F	-ne	-de	.	8d	kaum	schüt-	.	8f	kaum	schüt-	.	8ff	kaum	schüt-	.
.	.	.	.	8e	dich	-telt	.	8b-	dich	-telt	.	8dd	dich	-telt	.
=18	=18	=18	=18	=18	=18	=18	=18	=18	=18	=18	=18	=18	=18	=18	=18
2F	kaum	schüt-	.	4e	wie-	o-	.	4b-	wie-	o-	.	4dd	wie-	o-	.
.	.	.	.	4f	-der	-ben,	.	4a	-der	-ben,	.	4cc	-der	-ben,	.
4E	dich	-telt	.	4g	in	in	.	4g	in	in	.	4cc	in	in	.
!!pagebreak:original
=19	=19	=19	=19	=19	=19	=19	=19	=19	=19	=19	=19	=19	=19	=19	=19
(2D	wie-	o-	.	4.f	die-	Lin-	.	8cc	die-	Lin-	.	4.ff	die-	Lin-	.
.	.	.	.	.	.	.	.	8bn	-ser	-de	.	.	.	.	.
.	.	.	.	.	.	.	.	4b-X	Ein-	schüt-	.	.	.	.	.
.	.	.	.	8f	-ser	-de	.	.	.	.	.	8ff	-ser	-de	.
4D-X)	.	.	.	8e	Ein-	schüt-	.	4b-	-sam-	-telt	.	8gg	Ein-	schüt-	.
.	.	.	.	8f	-sam-	-telt	.	.	.	.	.	8ff	-sam-	-telt	.
=20	=20	=20	=20	=20	=20	=20	=20	=20	=20	=20	=20	=20	=20	=20	=20
*	*	*	*	*^	*	*	*	*^	*	*	*	*	*	*	*
2C	-der	-ben	.	4.g	4g	-keit,	o-	.	4.b-	4b-	-keit,	o-	.	(4ff	-keit,	o-	.
.	.	.	.	.	8g	.	-ben	.	.	8b-	.	-ben	.	8ee)	.	-ben	.
!	!	!	!	!LO:TX:a:i:t=dim.	!	!	!	!	!LO:TX:a:i:t=dim.	!	!	!	!	!LO:TX:a:i:t=dim.	!	!	!
.	.	.	.	8f	8ryy	in	ihr	.	8a	8ryy	in	ihr	.	8dd	in	ihr	.
!LO:TX:a:i:t=dim.	!	!	!	!	!	!	!	!	!	!	!	!	!	!	!	!	!
8r	.	.	.	8e	4ryy	die-	Laub	.	8g	4ryy	die-	Laub	.	8cc	die-	Laub	.
8C	in	ihr	.	8c	.	-ser	und	.	8e	.	-ser	und	.	8b-	-ser	und	.
*	*	*	*	*v	*v	*	*	*	*	*	*	*	*	*	*	*	*
*	*	*	*	*	*	*	*	*v	*v	*	*	*	*	*	*	*
=21	=21	=21	=21	=21	=21	=21	=21	=21	=21	=21	=21	=21	=21	=21	=21
!	!	!	!LO:DY:a	!	!	!	!LO:DY:a	!	!	!	!LO:DY:a	!	!	!	!LO:DY:a
8C#XL	die-	Laub	p	8eL	Ein-	deckt	p	8gL	Ein-	deckt	p	(2a	Ein-	deckt	p
8D	-ser	und	.	8d	.	.	.	8f	.	.	.	.	.	.	.
8E	Ein-	deckt	.	8c#X	.	.	.	8e	.	.	.	.	.	.	.
8F#XJ	.	.	.	8cnJ	.	.	.	8e-XJ	.	.	.	.	.	.	.
4G	-sam-	mich	.	4B-	-sam-	.	.	4d	-sam-	mich	.	8ddL)	.	.	.
.	.	.	.	.	.	.	.	.	.	.	.	16b-L	-sam-	mich	.
.	.	.	.	.	.	.	.	.	.	.	.	16gJJ	.	.	.
=22	=22	=22	=22	=22	=22	=22	=22	=22	=22	=22	=22	=22	=22	=22	=22
(4C	-keit.	zu.	.	(4G	-keit.	zu.	.	(4B-	-keit.	zu.	.	(4e	-keit.	zu.	.
4FF)	.	.	.	4F)	.	.	.	4A)	.	.	.	4f)	.	.	.
==	==	==	==	==	==	==	==	==	==	==	==	==	==	==	==
*-	*-	*-	*-	*-	*-	*-	*-	*-	*-	*-	*-	*-	*-	*-	*-
!!!system-decoration: [(s1,s2,s3,s4)]